laptop-account.svg

<svg  viewBox="0 0 24 24" fill="currentColor"><path  d="M20 4C21.1 4 22 4.89 22 6V16C22 17.11 21.11 18 20 18H24V20H0V18H4C2.9 18 2 17.11 2 16V6C2 4.89 2.89 4 4 4H20M20 6H4V16H20V6M12 12C14.21 12 16 12.9 16 14V15H8V14C8 12.9 9.79 12 12 12M12 7C13.11 7 14 7.9 14 9S13.11 11 12 11 10 10.11 10 9 10.9 7 12 7Z"/></svg>

<svg fill="currentColor" viewBox="0 0 24 24"><path d="M20 4a2 2 0 0 1 2 2v10c0 1.11-.89 2-2 2h4v2H0v-2h4a2 2 0 0 1-2-2V6c0-1.11.89-2 2-2zm0 2H4v10h16zm-8 6c2.21 0 4 .9 4 2v1H8v-1c0-1.1 1.79-2 4-2m0-5a2 2 0 1 1 0 4c-1.11 0-2-.89-2-2s.9-2 2-2"/></svg>
